!!!COM: Arthur Honegger
!!!OTL: [T605_Hon-w35p6-7m3-1h6m1-5]
**kern	**dynam	**kern	**dynam	**kern	**dynam	**kern	**dynam	**kern	**dynam
*grp:A	*grp:A	*grp:A	*grp:A	*grp:B	*grp:B	*grp:B	*grp:B	*grp:A	*grp:A
*part5	*	*part4	*	*part3	*	*part2	*	*part1	*
*staff5	*	*staff4	*	*staff3	*	*staff2	*	*staff1	*
*I"Contrabass	*	*I"Violoncello	*	*I"Viola	*	*I"Violin II	*	*I"Violin I	*
*I'Cb.	*	*I'Vc.	*	*I'Vla.	*	*I'Vln. II	*	*I'Vln. I	*
*clefF4	*	*clefF4	*	*clefC3	*	*clefG2	*	*clefG2	*
*ITrd7c12	*	*	*	*	*	*	*	*	*
*k[]	*	*k[]	*	*k[]	*	*k[]	*	*k[]	*
*C:	*	*C:	*	*C:	*	*C:	*	*C:	*
*M4/4	*	*M4/4	*	*M4/4	*	*M4/4	*	*M4/4	*
=94	=94	=94	=94	=94	=94	=94	=94	=94	=94
!	!	!	!	!	!	!	!	!LO:TX:t=[[half]=66]	!
!	!LO:DY:ed=brack	!	!LO:DY:ed=brack	!	!LO:DY:ed=brack	!	!LO:DY:ed=brack	!	!LO:DY:ed=brack
8C#X	f	8c#X	f	8ryy	4ryy	8ryy	4ryy	4aaan^	f
8r	.	8r	.	16ryy	.	8ryy	.	.	.
.	.	.	.	16ryy	.	.	.	.	.
4A^	.	4A^	.	12ryy	.	8.ryy	.	4fff#X	.
.	.	.	.	12ryy	.	.	.	.	.
.	.	.	.	12ryy	.	.	.	.	.
.	.	.	.	.	.	16ryy	.	.	.
4F#X	.	4F#X	.	8ryy	.	12ryy	.	4ccc#X	.
.	.	.	.	.	.	12ryy	.	.	.
.	.	.	.	16ryy	.	.	.	.	.
.	.	.	.	.	.	12ryy	.	.	.
.	.	.	.	16ryy	.	.	.	.	.
*	*	*	*	*Xtuplet	*	*	*	*	*
4C#	.	4C#X	.	12ryy	.	8ryy	.	4aaa^	.
.	.	.	.	12ryy	.	.	.	.	.
.	.	.	.	.	.	16ryy	.	.	.
.	.	.	.	12ryy	.	.	.	.	.
.	.	.	.	.	.	16ryy	.	.	.
=95	=95	=95	=95	=95	=95	=95	=95	=95	=95
*	*	*	*	*	*	*Xtuplet	*	*	*
4A^	.	4A^	.	8ryy	.	12ryy	.	4fff#X	.
.	.	.	.	.	.	12ryy	.	.	.
.	.	.	.	16ryy	.	.	.	.	.
.	.	.	.	.	.	12ryy	.	.	.
.	.	.	.	16ryy	.	.	.	.	.
4F#X	.	4F#X	.	12ryy	.	8ryy	.	4dddn	.
.	.	.	.	12ryy	.	.	.	.	.
.	.	.	.	.	.	16ryy	.	.	.
.	.	.	.	12ryy	.	.	.	.	.
.	.	.	.	.	.	16ryy	.	.	.
4D	.	4Dn	.	8ryy	.	12ryy	.	4aaa^	.
.	.	.	.	.	.	12ryy	.	.	.
.	.	.	.	16ryy	.	.	.	.	.
.	.	.	.	.	.	12ryy	.	.	.
.	.	.	.	16ryy	.	.	.	.	.
4A^	.	4A^	.	12ryy	.	8ryy	.	4fff#	.
.	.	.	.	12ryy	.	.	.	.	.
.	.	.	.	.	.	16ryy	.	.	.
.	.	.	.	12ryy	.	.	.	.	.
.	.	.	.	.	.	16ryy	.	.	.
=96	=96	=96	=96	=96	=96	=96	=96	=96	=96
4F#X	.	4F#X	.	8ryy	.	12ryy	.	4ddd#X	.
.	.	.	.	.	.	12ryy	.	.	.
.	.	.	.	16ryy	.	.	.	.	.
.	.	.	.	.	.	12ryy	.	.	.
.	.	.	.	16ryy	.	.	.	.	.
4D#X	.	4D#X	.	12ryy	.	8ryy	.	4aaa^	.
.	.	.	.	12ryy	.	.	.	.	.
.	.	.	.	.	.	16ryy	.	.	.
.	.	.	.	12ryy	.	.	.	.	.
.	.	.	.	.	.	16ryy	.	.	.
4A^	.	4A^	.	8ryy	.	12ryy	.	4fff#X	.
.	.	.	.	.	.	12ryy	.	.	.
.	.	.	.	16ryy	.	.	.	.	.
.	.	.	.	.	.	12ryy	.	.	.
.	.	.	.	16ryy	.	.	.	.	.
4F#	.	4F#	.	12ryy	.	8ryy	.	4eee	.
.	.	.	.	12ryy	.	.	.	.	.
.	.	.	.	.	.	16ryy	.	.	.
.	.	.	.	12ryy	.	.	.	.	.
.	.	.	.	.	.	16ryy	.	.	.
!!linebreak:original
!!LO:REH:t=6
=97	=97	=97	=97	=97	=97	=97	=97	=97	=97
*	*	*	*	*	*	*	*	*grp:B	*grp:B
!	!	!	!	!	!	!	!	!LO:TX:a:t=Div.	!
4D#X	.	4D#X	.	4ryy	.	4ryy	.	4ryy	.
*	*	*	*	*clefG2	*	*	*	*	*
4D#	.	4D#	.	8ryy	.	8ryy	.	8ryy	.
!	!	!	!	!LO:TX:a:t=Div.	!	!LO:TX:a:t=Div.	!	!	!
.	.	.	.	8ryy	.	8ryy	.	8ryy	.
4D#	.	4D#	.	8ryy	.	8ryy	.	8ryy	.
.	.	.	.	8ryy	.	8ryy	.	8ryy	.
4E	.	4E	.	8ryy	.	8ryy	.	8ryy	.
.	.	.	.	8ryy	.	8ryy	.	8ryy	.
=98	=98	=98	=98	=98	=98	=98	=98	=98	=98
4D#X	.	4D#X	.	8ryy	.	8ryy	.	8ryy	.
.	.	.	.	8ryy	.	8ryy	.	8ryy	.
4D#	.	4D#	.	8ryy	.	8ryy	.	8ryy	.
.	.	.	.	8ryy	.	8ryy	.	8ryy	.
4D#	.	4D#	.	4ryy	.	4ryy	.	4ryy	.
4AA	.	4A	.	8ryy	.	8ryy	.	8ryy	.
.	.	.	.	8ryy	.	8ryy	.	8ryy	.
=99	=99	=99	=99	=99	=99	=99	=99	=99	=99
4GG#X	.	4GG#X	.	4ryy	.	4ryy	.	4ryy	.
4GG#	.	4GG#	.	8ryy	.	8ryy	.	8ryy	.
.	.	.	.	8ryy	.	8ryy	.	8ryy	.
4GG#	.	4GG#	.	8ryy	.	8ryy	.	8ryy	.
.	.	.	.	8ryy	.	8ryy	.	8ryy	.
4AA	.	4AA	.	8ryy	.	8ryy	.	8ryy	.
.	.	.	.	8ryy	.	8ryy	.	8ryy	.
=100	=100	=100	=100	=100	=100	=100	=100	=100	=100
4GG#X	.	4GG#X	.	8ryy	.	8ryy	.	8ryy	.
.	.	.	.	8ryy	.	8ryy	.	8ryy	.
4GG#	.	4GG#	.	8ryy	.	8ryy	.	8ryy	.
.	.	.	.	8ryy	.	8ryy	.	8ryy	.
4GG#	.	4GG#	.	4ryy	.	4ryy	.	4ryy	.
4DDn	.	4Dn	.	8ryy	.	8ryy	.	8ryy	.
*	*	*	*	*clefC3	*	*	*	*	*
.	.	.	.	8ryy	.	8ryy	.	8ryy	.
=101	=101	=101	=101	=101	=101	=101	=101	=101	=101
4CC#X	.	4CC#X	.	4ryy	.	4ryy	.	4ryy	.
4CC#	.	4CC#	.	8ryy	.	8ryy	.	8ryy	.
.	.	.	.	8ryy	.	8ryy	.	8ryy	.
!	!	!	!	!	!	!	!	!LO:TX:a:i:t=diminundo 	!LO:HP:ed=brack
4CC#	.	4CC#	.	8ryy	.	8ryy	.	8ryy	.
.	.	.	.	8ryy	.	8ryy	.	8ryy	.
/4DD	.	4CC#	.	8ryy	.	8ryy	.	8ryy	.
.	.	.	.	8ryy	.	8ryy	.	8ryy	.
=	=	=	=	=	=	=	=	=	=
*-	*-	*-	*-	*-	*-	*-	*-	*-	*-
!!!system-decoration: [(s1,s2,s3,s4,s5)]
!!!EED: Daniel Wright
!!!EEV: 2021/08/23
!!!EED2: Rafael Laurindo
!!!EEV2: 2022/02/17
